components/2.0/icon/icons/icon-grid-22px.svg

<svg width="22" height="22" xmlns="http://www.w3.org/2000/svg"><path d="M5 12v3H2v2h3v3h2v-3h3v3h2v-3h3v3h2v-3h3v-2h-3v-3h3v-2h-3V7h3V5h-3V2h-2v3h-3V2h-2v3H7V2H5v3H2v2h3v3H2v2h3zm2 0v3h3v-3H7zm0-2V7h3v3H7zm5 2v3h3v-3h-3zm0-2V7h3v3h-3z" fill="#3D4752" fill-rule="evenodd"/></svg>

<?xml version="1.0" encoding="UTF-8" standalone="no"?>
<svg width="22px" height="22px" viewBox="0 0 22 22" version="1.1" xmlns="http://www.w3.org/2000/svg" xmlns:xlink="http://www.w3.org/1999/xlink" xmlns:sketch="http://www.bohemiancoding.com/sketch/ns">
    <!-- Generator: Sketch 3.4.4 (17249) - http://www.bohemiancoding.com/sketch -->
    <title>icon-grid-22px</title>
    <desc>Created with Sketch.</desc>
    <defs></defs>
    <g id="22px" stroke="none" stroke-width="1" fill="none" fill-rule="evenodd" sketch:type="MSPage">
        <g id="icon-grid-22px" sketch:type="MSArtboardGroup" fill="#3D4752">
            <path d="M5,12 L5,15 L2,15 L2,17 L5,17 L5,20 L7,20 L7,17 L10,17 L10,20 L12,20 L12,17 L15,17 L15,20 L17,20 L17,17 L20,17 L20,15 L17,15 L17,12 L20,12 L20,10 L17,10 L17,7 L20,7 L20,5 L17,5 L17,2 L15,2 L15,5 L12,5 L12,2 L10,2 L10,5 L7,5 L7,2 L5,2 L5,5 L2,5 L2,7 L5,7 L5,10 L2,10 L2,12 L5,12 Z M7,12 L7,15 L10,15 L10,12 L7,12 Z M7,10 L7,7 L10,7 L10,10 L7,10 Z M12,12 L12,15 L15,15 L15,12 L12,12 Z M12,10 L12,7 L15,7 L15,10 L12,10 Z" id="Rectangle-path" sketch:type="MSShapeGroup"></path>
        </g>
    </g>
</svg>
